src/svg/36/live_outline_36.svg

<svg fill="none" height="36" viewBox="0 0 36 36" width="36" xmlns="http://www.w3.org/2000/svg"><g fill="currentColor"><path d="m20.5 18c0 1.3807-1.1193 2.5-2.5 2.5s-2.5-1.1193-2.5-2.5 1.1193-2.5 2.5-2.5 2.5 1.1193 2.5 2.5z"/><g clip-rule="evenodd" fill-rule="evenodd"><path d="m9 18c0-4.9706 4.0294-9 9-9s9 4.0294 9 9-4.0294 9-9 9-9-4.0294-9-9zm15.2448 0c0-3.4489-2.7959-6.2448-6.2448-6.2448s-6.2448 2.7959-6.2448 6.2448 2.7959 6.2448 6.2448 6.2448 6.2448-2.7959 6.2448-6.2448z"/><path d="m33 18c0-8.28427-6.7157-15-15-15-8.28427 0-15 6.71573-15 15 0 8.2843 6.71573 15 15 15 8.2843 0 15-6.7157 15-15zm-27.5 0c0-6.9036 5.5964-12.5 12.5-12.5s12.5 5.5964 12.5 12.5-5.5964 12.5-12.5 12.5-12.5-5.5964-12.5-12.5z"/></g></g></svg>

<svg width="36" height="36" viewBox="0 0 36 36" fill="none" xmlns="http://www.w3.org/2000/svg">
<path fill-rule="evenodd" clip-rule="evenodd" d="M33 18C33 9.71573 26.2843 3 18 3C9.71573 3 3 9.71573 3 18C3 26.2843 9.71573 33 18 33C26.2843 33 33 26.2843 33 18ZM5.5 18C5.5 11.0964 11.0964 5.5 18 5.5C24.9036 5.5 30.5 11.0964 30.5 18C30.5 24.9036 24.9036 30.5 18 30.5C11.0964 30.5 5.5 24.9036 5.5 18ZM9 18C9 13.0294 13.0294 9 18 9C22.9706 9 27 13.0294 27 18C27 22.9706 22.9706 27 18 27C13.0294 27 9 22.9706 9 18ZM24.2448 18C24.2448 14.5511 21.4489 11.7552 18 11.7552C14.5511 11.7552 11.7552 14.5511 11.7552 18C11.7552 21.4489 14.5511 24.2448 18 24.2448C21.4489 24.2448 24.2448 21.4489 24.2448 18ZM20.5 18C20.5 19.3807 19.3807 20.5 18 20.5C16.6193 20.5 15.5 19.3807 15.5 18C15.5 16.6193 16.6193 15.5 18 15.5C19.3807 15.5 20.5 16.6193 20.5 18Z" fill="currentColor"/>
</svg>
